packages/ui-icons/svg/Line/text-end.svg

<svg viewBox="0 0 1920 1920" version="1.1" xmlns="http://www.w3.org/2000/svg">
    <path d="M1920,1663.89761 L1920,1791.88907 L255.982934,1791.88907 L255.982934,1663.89761 L1920,1663.89761 Z M1919.87201,1279.92321 L1919.87201,1407.91467 L0,1407.91467 L0,1279.92321 L1919.87201,1279.92321 Z M1920,895.948803 L1920,1023.94027 L255.982934,1023.94027 L255.982934,895.948803 L1920,895.948803 Z M1919.87201,511.974402 L1919.87201,639.965869 L0,639.965869 L0,511.974402 L1919.87201,511.974402 Z M1920,128 L1920,255.991467 L255.982934,255.991467 L255.982934,128 L1920,128 Z" stroke="none" stroke-width="1" fill-rule="evenodd"/>
</svg>

<svg viewBox="0 0 1920 1920" xmlns="http://www.w3.org/2000/svg">
    <path d="M1920 1663.898v127.991H255.983v-127.991H1920Zm-.128-383.975v127.992H0v-127.992h1919.872ZM1920 895.95v127.991H255.983V895.95H1920Zm-.128-383.975v127.992H0V511.974h1919.872ZM1920 128v127.991H255.983V128H1920Z" fill-rule="evenodd"/>
</svg>
